Gurmukhi/0A25.svg

<svg enable-background="new 0 0 336 592" viewBox="0 0 336 592" xmlns="http://www.w3.org/2000/svg"><path d="m145 195.104889c39.976089.004181 79.45256.093338 118.927765-.090973 5.24115-.02446 8.599701 1.121323 9.751709 6.660614.535095 2.572998 1.876221 4.97171 2.775207 7.476959 2.254578 6.282898 1.170685 7.932312-5.322204 7.974457-7.661713.049759-15.324021-.002701-22.985977.017075-6.948792.017944-6.95578.034454-6.954453 6.8376.010224 52.801361-.06015 105.602967.113297 158.403809.030914 9.413422-1.227036 12.148865-10.563599 6.638122-5.125549-3.025268-12.369507-3.880279-15.188843-8.948028-2.679779-4.816925-.681198-11.41391-.763-17.225617-.113785-8.084777-.028626-16.172363-.028626-25.414306-7.661514 7.481628-15.765808 11.785187-25.018127 13.867676-20.044403 4.511535-37.913941-.931458-54.271073-12.327057-14.503463-10.104187-25.309562-23.444672-33.15776-39.280701-1.593582-3.215515-1.219681-5.289551 1.194168-7.889984 10.238235-11.029663 18.282997-23.352844 20.667671-38.584519 1.837662-11.73767-.624969-22.800079-5.816193-33.371765-1.291648-2.630386-3.487335-2.694595-5.888122-2.688888-9.494179.022583-18.99083-.118622-28.481468.064865-3.580132.069229-5.530266-1.185227-6.548516-4.640656-.984314-3.340255-2.5783-6.495544-3.723159-9.794983-2.087166-6.015167-.983185-7.656585 5.320587-7.671035 21.820129-.050034 43.640465-.015503 65.960716-.012665m-14.390289 108.815887c-2.110688 2.314576-.303086 4.0318 1.006241 5.654602 23.225769 28.78592 60.975097 24.099274 79.245559-1.215667 1.905411-2.640076 3.974961-5.337281 3.90535-8.985321-.108032-5.660828-.108292-11.327423.019424-16.987641.067582-2.994812-1.121246-4.143402-4.119308-4.133087-20.320068.069977-40.640534.065765-60.960663.008881-2.503097-.007019-4.009643.863891-4.934921 3.238067-3.179917 8.159241-7.974457 15.33078-14.161682 22.420166m70.876129-86.762542c-20.855728 0-41.711441 0-62.360474 0-.535827 2.416916.315796 3.523178.871704 4.694244 5.243302 11.045624 9.352753 22.410202 9.319748 34.843323-.009582 3.609772 2.049759 3.957184 4.852585 3.951599 18.465286-.036926 36.931397-.095429 55.395538.057373 3.895905.032257 5.328278-1.271759 5.242264-5.181702-.190185-8.646164-.051391-17.299545-.049484-25.949981.002716-12.413163.001694-12.413163-13.271881-12.414856z"/></svg>

<svg version="1.1" id="Layer_1" xmlns="http://www.w3.org/2000/svg" xmlns:xlink="http://www.w3.org/1999/xlink" x="0px" y="0px"
	 width="100%" viewBox="0 0 336 592" enable-background="new 0 0 336 592" xml:space="preserve">
<path fill="#000000" opacity="1.000000" stroke="none" 
	d="
M145.000000,195.104889 
	C184.976089,195.109070 224.452560,195.198227 263.927765,195.013916 
	C269.168915,194.989456 272.527466,196.135239 273.679474,201.674530 
	C274.214569,204.247528 275.555695,206.646240 276.454681,209.151489 
	C278.709259,215.434387 277.625366,217.083801 271.132477,217.125946 
	C263.470764,217.175705 255.808456,217.123245 248.146500,217.143021 
	C241.197708,217.160965 241.190720,217.177475 241.192047,223.980621 
	C241.202271,276.781982 241.131897,329.583588 241.305344,382.384430 
	C241.336258,391.797852 240.078308,394.533295 230.741745,389.022552 
	C225.616196,385.997284 218.372238,385.142273 215.552902,380.074524 
	C212.873123,375.257599 214.871704,368.660614 214.789902,362.848907 
	C214.676117,354.764130 214.761276,346.676544 214.761276,337.434601 
	C207.099762,344.916229 198.995468,349.219788 189.743149,351.302277 
	C169.698746,355.813812 151.829208,350.370819 135.472076,338.975220 
	C120.968613,328.871033 110.162514,315.530548 102.314316,299.694519 
	C100.720734,296.479004 101.094635,294.404968 103.508484,291.804535 
	C113.746719,280.774872 121.791481,268.451691 124.176155,253.220016 
	C126.013817,241.482346 123.551186,230.419937 118.359962,219.848251 
	C117.068314,217.217865 114.872627,217.153656 112.471840,217.159363 
	C102.977661,217.181946 93.481010,217.040741 83.990372,217.224228 
	C80.410240,217.293457 78.460106,216.039001 77.441856,212.583572 
	C76.457542,209.243317 74.863556,206.088028 73.718697,202.788589 
	C71.631531,196.773422 72.735512,195.132004 79.039284,195.117554 
	C100.859413,195.067520 122.679749,195.102051 145.000000,195.104889 
M130.609711,303.920776 
	C128.499023,306.235352 130.306625,307.952576 131.615952,309.575378 
	C154.841721,338.361298 192.591049,333.674652 210.861511,308.359711 
	C212.766922,305.719635 214.836472,303.022430 214.766861,299.374390 
	C214.658829,293.713562 214.658569,288.046967 214.786285,282.386749 
	C214.853867,279.391937 213.665039,278.243347 210.666977,278.253662 
	C190.346909,278.323639 170.026443,278.319427 149.706314,278.262543 
	C147.203217,278.255524 145.696671,279.126434 144.771393,281.500610 
	C141.591476,289.659851 136.796936,296.831390 130.609711,303.920776 
M201.485840,217.158234 
	C180.630112,217.158234 159.774399,217.158234 139.125366,217.158234 
	C138.589539,219.575150 139.441162,220.681412 139.997070,221.852478 
	C145.240372,232.898102 149.349823,244.262680 149.316818,256.695801 
	C149.307236,260.305573 151.366577,260.652985 154.169403,260.647400 
	C172.634689,260.610474 191.100800,260.551971 209.564941,260.704773 
	C213.460846,260.737030 214.893219,259.433014 214.807205,255.523071 
	C214.617020,246.876907 214.755814,238.223526 214.757721,229.573090 
	C214.760437,217.159927 214.759415,217.159927 201.485840,217.158234 
z"/>
</svg>
